!!!!SEGMENT: pl-kk--kk-i-58--001_anonim--missa-kyrie.krn
!!!cenid: 17xx:2240
!!!COM: Anonim
!!!COM-rismid: pe30004985
!!!CDT:
!!!CNT:
!!!OPR: Missa
!!!OTL: Kyrie
!!!OMV: 001
!!!PDT:
!!!AGN: Sacred; Mass
!!!SMS-siglum: PL-Kk
!!!SMS-shelfmark: Kk.I.58
!!!SMS-shelfwork: 001-001 M
!!!SMS-variant: Baſso.: PL-Kk Kk.I.58:0018-0019
!!!SMS-altvar: Baſso.: PL-Kk Kk.I.58:0023-0024
!!!NIFC-rismid: 1001156758
!!!URL-scan: http://repozytorium.nifc.pl/skany/pl-kk-nut--i-58
!!!ONB-nifc: UWAGA: części Mszy: 1. Kyrie, 2. Et in terra, 3. Sanctus, 4. Benedictus, 5. Agnus Dei.
!!!AIN: 1 alto 1 empty 1 tenor 1 vox
!!!key:
**kern	**text	**kern	**text	**kern	**text	**kern	**text
*part4	*part4	*part3	*part3	*part2	*part2	*part1	*part1
*staff4	*staff4	*staff3	*staff3	*staff2	*staff2	*staff1	*staff1
*Iempty	*	*Itenor	*	*Ialto	*	*Ivox	*
*I"Baſso.	*	*I"Tenore	*	*I"Alto.	*	*I"Canto.	*
*I'B	*	*I'T	*	*I'A	*	*I'S	*
*clefF4	*	*clefC4	*	*clefC3	*	*clefC1	*
*k[b-]	*	*k[b-]	*	*k[b-]	*	*k[b-]	*
*F:	*	*F:	*	*F:	*	*F:	*
*M2/1	*	*M2/1	*	*M2/1	*	*M2/1	*
*met(c|)	*	*met(c|)	*	*met(c|)	*	*met(c|)	*
=1-	=1-	=1-	=1-	=1-	=1-	=1-	=1-
!LO:TX:a:t=P:problem=w źródle znaki przykluczowe B- i BB-, zapisane jeden nad drugim	!	!	!	!	!	!	!
1F	Ky-	1c	Ky-	1f	Ky-	1a	Ky-
1C	-ri-	1c	-ri-	1e	-ri-	1g	-ri-
=2-	=2-	=2-	=2-	=2-	=2-	=2-	=2-
*2\right	*	*2\right	*	*2\right	*	*2\right	*
!	!	!LO:TX:t=P:problem=kreska pseudotaktowa	!	!LO:TX:t=P:problem=kreska pseudotaktowa	!	!	!
2.F\	-e	1c	-e	1f	-e	2a,<\	-e
.	.	.	.	.	.	1cc	Ky-
4F\	e-	.	.	.	.	.	.
!	!	!	!	!LO:TX:a:t=5.	!	!	!
2D/	-ley-	00r	.	00r	.	.	.
!	!	!	!	!	!	!LO:TX:t=P:problem=kreska pseudotaktowa	!
2E/	-son	.	.	.	.	2b-\	-ri-
=3-	=3-	=3-	=3-	=3-	=3-	=3-	=3-
!LO:TX:t=P:problem=kreska pseudotaktowa	!	!	!	!	!	!	!
1F	.	.	.	.	.	2.a\	-e
.	.	.	.	.	.	4a\	e-
00r	.	.	.	.	.	2g\	-ley-
!	!	!	!	!	!	!LO:TX:t=P:problem=kreska pseudotaktowa	!
.	.	.	.	.	.	2b-\	.
=4-	=4-	=4-	=4-	=4-	=4-	=4-	=4-
.	.	.	.	.	.	2b-\	.
.	.	.	.	.	.	2a\	.
.	.	00r	.	1r	.	2.g/	.
.	.	.	.	.	.	4g/	.
=5-	=5-	=5-	=5-	=5-	=5-	=5-	=5-
!	!	!	!	!	!	!LO:TX:t=P:problem=kreska pseudotaktowa	!
.	.	.	.	2r	.	1f	-son
.	.	.	.	1f	Ky-	.	.
00r	.	.	.	.	.	(>4a\	e-
.	.	.	.	.	.	4g\)	.
!	!	!	!	!LO:TX:t=P:problem=kreska pseudotaktowa	!	!	!
!	!	!	!	!	!	!LO:TX:a:i:t=a	!
.	.	.	.	2f\	-ri-	4a\	-ley-
*	*	*	*	*	*	*custos:cc	*
!	!	!	!	!	!	!LO:TX:t=P:problem=kreska pseudotaktowa	!
.	.	.	.	.	.	4bn\	.
!	!	!	!	!	!	!LO:LB:g=original	!
=6-	=6-	=6-	=6-	=6-	=6-	=6-	=6-
.	.	.	.	2.e\	-e	4cc\	son
.	.	.	.	.	.	4g/	e-
.	.	.	.	.	.	2.cc\	-ley-
.	.	.	.	4e\	e-	.	.
.	.	0r	.	2d\	-lei-	.	.
.	.	.	.	.	.	4bn\	.
.	.	.	.	1f\	.	4a\	.
.	.	.	.	.	.	8b\L	.
!	!	!	!	!	!	!LO:TX:t=P:problem=kreska pseudotaktowa	!
.	.	.	.	.	.	8a\J	.
=7-	=7-	=7-	=7-	=7-	=7-	=7-	=7-
.	.	.	.	.	.	2g/	.
.	.	.	.	2e\	.	1cc	.
00rF	.	1r	.	2.d/	.	.	.
.	.	.	.	.	.	2b-y\	.
.	.	.	.	4d/	-son	.	.
=8-	=8-	=8-	=8-	=8-	=8-	=8-	=8-
!	!	!	!	!LO:TX:t=P:problem=kreska pseudotaktowa	!	!LO:TX:t=P:problem=kreska pseudotaktowa	!
.	.	2r	.	1c	.	1cc	-son
.	.	1c	Ky-	.	.	.	.
!	!	!	!	!	!	!LO:TX:t=P:problem=kreska pseudotaktowa	!
!	!	!	!	!	!	!LO:TX:a:t=I.	!
.	.	.	.	4d\	e-	1r	.
.	.	.	.	(>4c\	-lei-	.	.
.	.	2B-\	-ri-	4d\)	.	.	.
!	!	!	!	!LO:TX:t=P:problem=kreska pseudotaktowa	!	!	!
.	.	.	.	4e\	.	.	.
!	!	!	!	!LO:LB:g=original	!	!	!
=9-	=9-	=9-	=9-	=9-	=9-	=9-	=9-
.	.	2.A/	-e	4f\	-son	2cc\	Ky-
.	.	.	.	4c/	e-	.	.
.	.	.	.	2.f\	.	2cc\	-ri-
.	.	4A/	e-	.	.	.	.
0rF	.	2G/	-lei-	.	.	2.b-\	-e
.	.	.	.	4e\	-ley-	.	.
.	.	1B-\	.	4d\	.	.	.
!	!	!	!	!	!	!LO:TX:t=P:problem=kreska pseudotaktowa	!
.	.	.	.	8e\L	.	4f/	e-
!	!	!	!	!LO:TX:t=P:problem=kreska pseudotaktowa	!	!	!
.	.	.	.	8d\J	.	.	.
=10-	=10-	=10-	=10-	=10-	=10-	=10-	=10-
.	.	.	.	2c/	.	2g\	-ley-
.	.	2A/	.	1f	.	2a\	.
1rA	.	2.G/	.	.	.	2.b-\	-son
.	.	.	.	2e\	.	.	.
.	.	4G/	.	.	.	4b-\	e-
=11-	=11-	=11-	=11-	=11-	=11-	=11-	=11-
!	!	!LO:TX:t=P:problem=kreska pseudotaktowa	!	!LO:TX:t=P:problem=kreska pseudotaktowa	!	!	!
2r	.	1F	-son	1f	-son	(>4a\	-ley-
.	.	.	.	.	.	4b-\)	.
1F	Ky-	.	.	.	.	(>4a\	.
.	.	.	.	.	.	4g\)	-son
!	!	!	!	!LO:TX:a:t=I.	!	!LO:TX:t=P:problem=kreska pseudotaktowa	!
.	.	(>4A\	e-	1r	.	1f	.
.	.	4G/)	.	.	.	.	.
2F\	-ri-	(>4A/	-ley-	.	.	.	.
.	.	4Bn/)	.	.	.	.	.
!	!	!LO:LB:g=original	!	!	!	!LO:LB:g=original	!
=12-	=12-	=12-	=12-	=12-	=12-	=12-	=12-
!	!	!	!	!	!	!LO:TX:t=P:problem=kreska pseudotaktowa	!
!	!	!	!	!	!	!LO:TX:a:t=I.	!
2.E\	-e	4c\	-son	2g\	Ky-	1r	.
.	.	4G/	e-	.	.	.	.
.	.	2.c\	-lei-	2e\	-ri-	.	.
4E\	e-	.	.	.	.	.	.
2D\	-ley-	.	.	2.f\	-e	2dd\	Ky-
.	.	4Bn\	.	.	.	.	.
1F\	.	4A\	.	.	.	2cc\	-ri-
.	.	8B\L	.	4c/	e-	.	.
!	!	!LO:TX:t=P:problem=kreska pseudotaktowa	!	!	!	!	!
.	.	8A\J	.	.	.	.	.
=13-	=13-	=13-	=13-	=13-	=13-	=13-	=13-
.	.	2G/	.	2d/	-ley-	2bn\	-e
2E\	.	1c	.	2e\	-son	2g/	e-
2.D/	.	.	.	2.f\	.	2a\	-ley-
!	!	!	!	!	!	!LO:TX:t=P:problem=kreska pseudotaktowa	!
.	.	2Bn\	-son	.	.	2dd\	-son
!	!	!	!	!LO:TX:t=P:problem=kreska pseudotaktowa	!	!	!
4D/	.	.	.	4f\	e-	.	.
=14-	=14-	=14-	=14-	=14-	=14-	=14-	=14-
2C/	-son	1c	.	4e\	-lei-	2g/	.
.	.	.	.	4f\	.	.	.
2BB-/	e-	.	.	4g\	.	1cc	Ky-
.	.	.	.	4e\	-son	.	.
2D/	-ley-	0r	.	2f\	.	.	.
!	!	!	!	!LO:TX:t=P:problem=kreska pseudotaktowa	!	!LO:TX:t=P:problem=kreska pseudotaktowa	!
2G\	.	.	.	2r	.	2b-y\	-ri-
!	!	!	!	!LO:LB:g=original	!	!	!
=15-	=15-	=15-	=15-	=15-	=15-	=15-	=15-
2G\	.	.	.	2r	.	1a	-e
4F\	.	.	.	1f	Ky-	.	.
4E\	.	.	.	.	.	.	.
!LO:LB:g=original	!	!	!	!	!	!	!
2F\	.	1r	.	.	.	2a\	e-
!	!	!	!	!LO:TX:t=P:problem=kreska pseudotaktowa	!	!LO:TX:t=P:problem=kreska pseudotaktowa	!
2FF/	.	.	.	2f\	-ri-	2a\	.
=16-	=16-	=16-	=16-	=16-	=16-	=16-	=16-
!LO:TX:t=P:problem=kreska pseudotaktowa	!	!	!	!	!	!	!
1C	-son	2r	.	2e\	-e	(<4g/	-ley-
.	.	.	.	.	.	4f/)	.
.	.	1c	Ky-	2e\	e-	(<4g/	-son
.	.	.	.	.	.	4e/)	.
1r	.	.	.	2.d/	-ley-	2f/	.
!	!	!	!	!	!	!LO:TX:t=P:problem=kreska pseudotaktowa	!
.	.	2B-y\	-ri-	.	.	2g/	e-
.	.	.	.	4d/	.	.	.
=17-	=17-	=17-	=17-	=17-	=17-	=17-	=17-
!	!	!	!	!LO:TX:t=P:problem=kreska pseudotaktowa	!	!	!
2r	.	2.A\	-e	1c	-son.	4a\	-ley-
.	.	.	.	.	.	4b-\	.
1F	Ky-	.	.	.	.	1cc	.
.	.	4A\	e-	.	.	.	.
.	.	2A\	-lei-	2r	.	.	.
!	!	!	!	!	!	!LO:TX:t=P:problem=kreska pseudotaktowa	!
2F\	-ri-	2Bn\	-son	2d\	e-	2dd\	.
!	!	!	!	!	!	!LO:LB:g=original	!
=18-	=18-	=18-	=18-	=18-	=18-	=18-	=18-
!	!	!LO:TX:t=P:problem=kreska pseudotaktowa	!	!	!	!	!
2E\	-e	1c	.	(>4e\	-lei-	2g,</	-son
.	.	.	.	4f\)	.	.	.
2C/	e-	.	.	(>4e\	.	2g/	e-
.	.	.	.	4d\)	.	.	.
!	!	!	!	!LO:TX:t=P:problem=kreska pseudotaktowa	!	!	!
2.F\	-ley-	2r	.	1c	-son	(>4a\	-ley-
.	.	.	.	.	.	4b-\)	.
.	.	2A/	e-	.	.	(>4a\	.
!LO:TX:t=P:problem=kreska pseudotaktowa	!	!	!	!	!	!	!
4E\	-son	.	.	.	.	4g\)	.
=19-	=19-	=19-	=19-	=19-	=19-	=19-	=19-
!	!	!	!	!	!	!LO:TX:t=P:problem=kreska pseudotaktowa	!
2D/,<	.	(>4B-y\	-ley-	2r	.	1f	-son
.	.	4c\)	.	.	.	.	.
2D/	e-	(>4B-\	.	1d	Ky-	.	.
.	.	4A\)	.	.	.	.	.
!	!	!LO:LB:g=original	!	!	!	!	!
4E\	-ley-	1G	-son	.	.	2r	.
4F\	.	.	.	.	.	.	.
4E\	.	.	.	4c/	-ri-	1g\	Ky-
!	!	!	!	!LO:TX:t=P:problem=kreska pseudotaktowa	!	!	!
4D\	-son.	.	.	(<4d/	.	.	.
=20-	=20-	=20-	=20-	=20-	=20-	=20-	=20-
2C,</	.	2rF	.	2e\)	-e	.	.
1F	Ky-	2A\	e-	2c/	e-	2f/	-ri-
.	.	2B-\	-ley-	2d\	-ley-	2g/	-e
!	!	!	!	!LO:TX:t=P:problem=kreska pseudotaktowa	!	!	!
!	!	!	!	!	!	!LO:TX:t=P:problem=kreska pseudotaktowa	!
2E\	-ri-	1c\	.	2e\	.	2g/	e-
!	!	!	!	!LO:LB:g=original	!	!	!
=21-	=21-	=21-	=21-	=21-	=21-	=21-	=21-
2D\	-e	.	.	2f\	-son	2a/	-ley-
2G\	e-	1B-	.	2d\	.	4g/	.
.	.	.	.	.	.	4f/	.
2C/	.	.	.	2e\	e-	2g/	.
!	!	!LO:TX:t=P:problem=kreska pseudotaktowa	!	!LO:TX:t=P:problem=kreska pseudotaktowa	!	!LO:TX:t=P:problem=kreska pseudotaktowa	!
2F\	.	2A\	.	2c\	-ley-	2f/	.
=22-	=22-	=22-	=22-	=22-	=22-	=22-	=22-
1.C	-ley-	2G/	.	2c/	-son	2e/	.
.	.	2A/	.	2c/	e-	1f	.
.	.	2.G/	.	2.c/	-lei-	.	.
!LO:TX:t=P:problem=kreska pseudotaktowa	!	!	!	!	!	!LO:TX:t=P:problem=kreska pseudotaktowa	!
2C/	-son.	.	.	.	.	2e/	.
!	!	!LO:TX:t=P:problem=kreska pseudotaktowa	!	!LO:TX:t=P:problem=kreska pseudotaktowa	!	!	!
.	.	4G/	.	4c/	.	.	.
=23-	=23-	=23-	=23-	=23-	=23-	=23-	=23-
!LO:TX:t=P:problem=podwójna kreska pseudotaktowa	!	!LO:TX:t=P:problem=podwójna kreska pseudotaktowa	!	!LO:TX:t=P:problem=podwójna kreska pseudotaktowa	!	!LO:TX:t=P:problem=podwójna kreska pseudotaktowa	!
0F;>	.	0A;>	-son.	0c;>	-son.	0f;>	-son.
!LO:LB:g=original	!	!LO:LB:g=original	!	!	!	!LO:LB:g=original	!
=24||-	=24||-	=24||-	=24||-	=24||-	=24||-	=24||-	=24||-
*M2/1	*	*M2/1	*	*M2/1	*	*M2/1	*
*met(c|)	*	*met(c|)	*	*met(c|)	*	*met(c|)	*
00r	.	00r	.	2r	.	00r	.
.	.	.	.	1c	Chri-	.	.
.	.	.	.	2f\	-ste	.	.
=25-	=25-	=25-	=25-	=25-	=25-	=25-	=25-
.	.	.	.	2f\	e-	.	.
.	.	.	.	2e\	.	.	.
.	.	.	.	4d\	-lei-	.	.
.	.	.	.	4c\	.	.	.
.	.	.	.	4d\	.	.	.
.	.	.	.	8e\L	.	.	.
!	!	!	!	!LO:TX:t=P:problem=kreska pseudotaktowa	!	!	!
.	.	.	.	8d\J	.	.	.
!	!	!	!	!LO:LB:g=original	!	!	!
=26-	=26-	=26-	=26-	=26-	=26-	=26-	=26-
00r	.	0r	.	2c\	.	00r	.
.	.	.	.	1f	.	.	.
.	.	.	.	2e\	.	.	.
=27-	=27-	=27-	=27-	=27-	=27-	=27-	=27-
!	!	!	!	!LO:TX:t=P:problem=kreska pseudotaktowa	!	!	!
.	.	2r	.	1f	-son	.	.
.	.	1F	Chri-	.	.	.	.
.	.	.	.	2r	.	.	.
!	!	!LO:TX:t=P:problem=kreska pseudotaktowa	!	!	!	!	!
.	.	[<2c\	-ste-	2e\	e-	.	.
=28-	=28-	=28-	=28-	=28-	=28-	=28-	=28-
00rF	.	2c\]	-e	2d\	-lei-	00rcc	.
!	!	!LO:TX:t=P:problem=kreska pseudotaktowa	!	!	!	!	!
.	.	2B-\	e-	1g	.	.	.
.	.	4A/	-ley-	.	.	.	.
.	.	4G/	.	.	.	.	.
.	.	4A/	.	1f\	.	.	.
.	.	8B-/L	.	.	.	.	.
!	!	!LO:TX:t=P:problem=kreska pseudotaktowa	!	!	!	!	!
.	.	8A/J	.	.	.	.	.
=29-	=29-	=29-	=29-	=29-	=29-	=29-	=29-
.	.	2G/	.	.	.	.	.
.	.	1c	.	2e\	.	.	.
.	.	.	.	2.d\	.	.	.
!	!	!LO:TX:t=P:problem=kreska pseudotaktowa	!	!	!	!	!
.	.	2Bn\	.	.	.	.	.
.	.	.	.	4d\	-lei-	.	.
=30-	=30-	=30-	=30-	=30-	=30-	=30-	=30-
!	!	!	!	!LO:TX:t=P:problem=kreska pseudotaktowa	!	!	!
2r	.	1c	-son	1c	-son	00rcc	.
1C	Chry-	.	.	.	.	.	.
!	!	!	!	!LO:TX:t=P:problem=kreska pseudotaktowa	!	!	!
!	!	!	!	!LO:TX:a:t=I.	!	!	!
.	.	2r	.	1r	.	.	.
!LO:TX:t=P:problem=kreska pseudotaktowa	!	!	!	!	!	!	!
[<2<F\	-ste	2A/	e-	.	.	.	.
=31-	=31-	=31-	=31-	=31-	=31-	=31-	=31-
2F\]	e-	2G/	-lei-	2r	.	.	.
2E\	.	1c	.	2e\	e-	.	.
4D/	-ley-	.	.	1f	-lei-	.	.
4C/	.	.	.	.	.	.	.
!	!	!LO:TX:t=P:problem=kreska pseudotaktowa	!	!	!	!	!
4D/	.	2B-y\	.	.	.	.	.
8E/L	.	.	.	.	.	.	.
!LO:TX:t=P:problem=kreska pseudotaktowa	!	!	!	!	!	!	!
8D/J	.	.	.	.	.	.	.
=32-	=32-	=32-	=32-	=32-	=32-	=32-	=32-
2C/	.	2B-\	.	2e\	.	0ree	.
1F	.	2A/	.	2c/	.	.	.
!	!	!LO:LB:g=original	!	!LO:LB:g=original	!	!	!
.	.	2.G/	.	2d\	.	.	.
2E\	-son.	.	.	2c\	.	.	.
.	.	4G/	-son	.	.	.	.
=33-	=33-	=33-	=33-	=33-	=33-	=33-	=33-
!LO:TX:t=P:problem=kreska pseudotaktowa	!	!LO:TX:t=P:problem=kreska pseudotaktowa	!	!LO:TX:t=P:problem=kreska pseudotaktowa	!	!	!
1F	.	1A	.	1c	-son	2r	.
.	.	.	.	.	.	1f	Chry-
!	!	!	!	!LO:TX:t=P:problem=kreska pseudotaktowa	!	!	!
2rC	.	1r	.	0r	.	.	.
!	!	!	!	!	!	!LO:TX:t=P:problem=kreska pseudotaktowa	!
2E\	e-	.	.	.	.	2cc\	-ste
=34-	=34-	=34-	=34-	=34-	=34-	=34-	=34-
2D\	-ley-	2r	.	.	.	2cc\	.
1G	.	2d\	e-	.	.	2b-\	e-
.	.	2c\	-ley-	2e\	Chri-	4a\	-ley-
.	.	.	.	.	.	4g\	.
1F\	.	2c\	.	2f\	-ste-	4a\	.
.	.	.	.	.	.	8b-\L	.
!	!	!	!	!	!	!LO:TX:t=P:problem=kreska pseudotaktowa	!
.	.	.	.	.	.	8a\J	.
=35-	=35-	=35-	=35-	=35-	=35-	=35-	=35-
.	.	2Bn\	-son	2d\	-e	2g/	.
!LO:TX:t=P:problem=kreska pseudotaktowa	!	!	!	!	!	!	!
2E\	.	2G/	e-	2e\	e-	1cc	.
2.D/	.	2A/	-ley-	2.f\	-lei-	.	.
!	!	!LO:TX:t=P:problem=kreska pseudotaktowa	!	!	!	!LO:TX:t=P:problem=kreska pseudotaktowa	!
.	.	2d\	.	.	.	2bn\	.
!	!	!	!	!LO:TX:t=P:problem=kreska pseudotaktowa	!	!	!
4D/	.	.	.	4f\	.	.	.
=36-	=36-	=36-	=36-	=36-	=36-	=36-	=36-
!	!	!LO:TX:t=P:problem=kreska pseudotaktowa	!	!	!	!	!
2C/	-son,	1G	-son.	2e\	-son	1cc	-son
1C	Chry-	.	.	4e\	.	.	.
.	.	.	.	4d\	e-	.	.
.	.	1r	.	2.e\	-ley-	2g/	Chri-
!LO:TX:t=P:problem=kreska pseudotaktowa	!	!	!	!	!	!LO:TX:t=P:problem=kreska pseudotaktowa	!
2F\	-ste	.	.	.	.	2a/	-ste
.	.	.	.	4d\	.	.	.
!LO:LB:g=original	!	!	!	!LO:LB:g=original	!	!	!
=37-	=37-	=37-	=37-	=37-	=37-	=37-	=37-
!	!	!	!	!LO:TX:t=P:problem=kreska pseudotaktowa	!	!	!
2F\	e-	2r	.	1c	-son	2a/	e-
4F\	.	1F	Chri-	.	.	2a/	.
4E\	.	.	.	.	.	.	.
2D\	.	.	.	1r	.	2b-y\	-ley-
2E\	.	2c\	-ste	.	.	4cc\	.
.	.	.	.	.	.	4b-\	-son
=38-	=38-	=38-	=38-	=38-	=38-	=38-	=38-
!	!	!	!	!	!	!LO:TX:t=P:problem=kreska pseudotaktowa	!
1F	-ley-	2c\	e-	2r	.	1a	.
.	.	4c\	-ley-	1c	Chri-	.	.
.	.	4B-y\	.	.	.	.	.
!	!	!	!	!	!	!LO:TX:t=P:problem=kreska pseudotaktowa	!
!LO:TX:t=P:problem=kreska pseudotaktowa	!	!	!	!	!	!LO:TX:a:t=I.	!
!	!	!	!	!	!	!LO:LB:g=original	!
1F	-son	2A/	.	.	.	1ree	.
.	.	2A/	-son	1f\	-ste	.	.
=39-	=39-	=39-	=39-	=39-	=39-	=39-	=39-
!	!	!LO:TX:t=P:problem=kreska pseudotaktowa	!	!	!	!	!
1D	Chry-	1A	.	.	.	2r	.
.	.	.	.	(>4f\	.	1f	Chri-
!	!	!	!	!LO:TX:t=P:problem=kreska pseudotaktowa	!	!	!
.	.	.	.	4e\)	e-	.	.
!	!	!LO:LB:g=original	!	!	!	!	!
2BB-/	.	0r	.	2d\	-ley-	.	.
!	!	!	!	!	!	!LO:TX:t=P:problem=kreska pseudotaktowa	!
2AA/	-ste	.	.	2e\	.	2cc\	-ste
=40-	=40-	=40-	=40-	=40-	=40-	=40-	=40-
!	!	!	!	!LO:TX:t=P:problem=kreska pseudotaktowa	!	!	!
2AA/	e-	.	.	1f	-son	2cc\	e-
2D\	-ley-	.	.	.	.	4cc\	-ley-
.	.	.	.	.	.	4b-\	.
!LO:TX:t=P:problem=kreska pseudotaktowa	!	!	!	!	!	!	!
1D	-son	1r	.	1f	Chri-	1a	.
=41-	=41-	=41-	=41-	=41-	=41-	=41-	=41-
!LO:TX:a:t=I.	!	!	!	!	!	!	!
1r	.	1B-	Chri-	2d\	-ste	2a/	.
.	.	.	.	4e\	.	2g/	.
.	.	.	.	4d\	.	.	.
1F	Chry-	2A/	-ste	2c\	lei-	2f/	.
!	!	!	!	!LO:TX:t=P:problem=kreska pseudotaktowa	!	!	!
.	.	2A/	e-	2c\	-son	2f/	.
=42-	=42-	=42-	=42-	=42-	=42-	=42-	=42-
!	!	!	!	!	!	!LO:TX:t=P:problem=kreska pseudotaktowa	!
2F\	-ste	2Bn\	-lei-	2d\	e	1g	-son
2E\	e-	1c	.	2e\	e-	.	.
2D\	-ley-	.	.	(>4f\	-ley-	2r	.
.	.	.	.	4e\)	.	.	.
!	!	!LO:TX:t=P:problem=kreska pseudotaktowa	!	!	!	!	!
2G\	-son	2Bn\	-son	(>4f\	.	1g\	Chri-
!	!	!	!	!LO:TX:t=P:problem=kreska pseudotaktowa	!	!	!
.	.	.	.	4d\)	.	.	.
=43-	=43-	=43-	=43-	=43-	=43-	=43-	=43-
2C/	e-	2c\	.	2e,<\	-son,	.	.
2C/	-ley-	4c\	e-	2e\	e-	1a	-ste
.	.	4Bny\	.	.	.	.	.
2D/	.	2A/	-ley-	2.f\	-lei-	.	.
!LO:TX:t=P:problem=kreska pseudotaktowa	!	!	!	!	!	!LO:TX:t=P:problem=kreska pseudotaktowa	!
2D/	.	1d\	.	.	.	2a\	e-
.	.	.	.	8g\L	.	.	.
!	!	!	!	!LO:TX:t=P:problem=kreska pseudotaktowa	!	!	!
.	.	.	.	8f\J	.	.	.
!	!	!	!	!LO:PB:g=original	!	!	!
=44-	=44-	=44-	=44-	=44-	=44-	=44-	=44-
2E,<\	-son,	.	.	1e	.	2g#X/	-e-
2AA/	e-	2c\	.	.	.	1a	-ley-
2.E\	-ley-	2.Bn\	.	2e\	.	.	.
.	.	.	.	2e\	-son	2g#X/	-son
!LO:TX:t=P:problem=kreska pseudotaktowa	!	!	!	!	!	!	!
4E\	.	4B\	.	.	.	.	.
!LO:LB:g=original	!	!	!	!	!	!	!
=45-	=45-	=45-	=45-	=45-	=45-	=45-	=45-
!	!	!LO:TX:t=P:problem=kreska pseudotaktowa	!	!LO:TX:t=P:problem=kreska pseudotaktowa	!	!LO:TX:t=P:problem=kreska pseudotaktowa	!
2AA/	-son	1c	-son	1e	.	1a	.
1C	Chry-	.	.	.	.	.	.
.	.	1r	.	0r	.	00r	.
!LO:TX:t=P:problem=kreska pseudotaktowa	!	!	!	!	!	!	!
2F\	-ste	.	.	.	.	.	.
=46-	=46-	=46-	=46-	=46-	=46-	=46-	=46-
2F\	e-	2r	.	.	.	.	.
4D\	-ley-	1F	Chri-	.	.	.	.
!LO:TX:t=P:problem=kreska pseudotaktowa	!	!	!	!	!	!	!
4E\	.	.	.	.	.	.	.
4F\	.	.	.	1r	.	.	.
4E\	.	.	.	.	.	.	.
!	!	!LO:TX:t=P:problem=kreska pseudotaktowa	!	!	!	!	!
4F\	.	2c\	-ste	.	.	.	.
8G\L	.	.	.	.	.	.	.
!LO:TX:t=P:problem=kreska pseudotaktowa	!	!	!	!	!	!	!
8F\J	.	.	.	.	.	.	.
!	!	!LO:LB:g=original	!	!	!	!	!
=47-	=47-	=47-	=47-	=47-	=47-	=47-	=47-
2E\	-son	2c\	.	2r	.	.	.
4F\	e-	4A\	e-	1c	Chri-	.	.
4G\	.	4B-y\	-lei-	.	.	.	.
!	!	!	!	!	!	!LO:TX:t=P:problem=kreska pseudotaktowa	!
4A\	-ley-	2c\	.	.	.	1r	.
4G\	.	.	.	.	.	.	.
!	!	!LO:TX:t=P:problem=kreska pseudotaktowa	!	!	!	!	!
4F\	.	2c\	.	2f\	-ste	.	.
!LO:TX:t=P:problem=kreska pseudotaktowa	!	!	!	!	!	!	!
4E\	-son	.	.	.	.	.	.
!	!	!	!	!	!	!LO:LB:g=original	!
=48-	=48-	=48-	=48-	=48-	=48-	=48-	=48-
2D/	.	2c\	.	2f\	.	2r	.
!	!	!	!	!LO:TX:t=P:problem=kreska pseudotaktowa	!	!	!
2G\	e-	2Bn\	.	2d\	e-	1f	Chri-
!	!	!LO:TX:t=P:problem=kreska pseudotaktowa	!	!	!	!	!
2E\	-ley-	1c	-son	2.e\	-lei-	.	.
!	!	!	!	!	!	!LO:TX:t=P:problem=kreska pseudotaktowa	!
2C/	-son	.	.	.	.	2cc\	-ste
.	.	.	.	4e\	.	.	.
=49-	=49-	=49-	=49-	=49-	=49-	=49-	=49-
!LO:TX:t=P:problem=kreska pseudotaktowa	!	!	!	!LO:TX:t=P:problem=kreska pseudotaktowa	!	!	!
1F	.	1A	Chri-	1f	-son	2cc\	e-
.	.	.	.	.	.	4a\	.
.	.	.	.	.	.	4b-\	.
1F	Chry-	2A\	-ste	2r	.	2cc\	-ley-
!	!	!	!	!	!	!LO:TX:t=P:problem=kreska pseudotaktowa	!
.	.	2A\	e-	2f\	e	2cc\	.
=50-	=50-	=50-	=50-	=50-	=50-	=50-	=50-
2D\	.	2A\	-ley-	2f\	e-	2cc\	.
1G	-ste	2B-y\	.	4g\	-lei-	2b-\	-son
.	.	.	.	4f\	.	.	.
.	.	2c\	-son	2e\	.	2a/	.
!	!	!	!	!	!	!LO:TX:t=P:problem=kreska pseudotaktowa	!
1F\	e-	2c\	e-	2f\	-son	2a/	e-
=51-	=51-	=51-	=51-	=51-	=51-	=51-	=51-
.	.	2d\	-ley-	2g\	e-	2bn\	-ley-
2E\	-ley-	4e\	.	2g\	.	2cc\	.
.	.	4d\	.	.	.	.	.
2F\	.	2.c\	.	2.f\	-lei-	2.a\	.
2FF/	.	.	.	.	.	.	.
!	!	!	!	!LO:TX:t=P:problem=kreska pseudotaktowa	!	!	!
.	.	4c\	.	4f\	.	4a\	.
=52-	=52-	=52-	=52-	=52-	=52-	=52-	=52-
!	!	!LO:TX:t=P:problem=podwójna kreska pseudotaktowa	!	!LO:TX:t=P:problem=podwójna kreska pseudotaktowa	!	!LO:TX:t=P:problem=podwójna kreska pseudotaktowa	!
0C;>	-son	0c;>	-son	0e;>	-son.	0a;>	-son.
!LO:LB:g=original	!	!LO:PB:g=original	!	!LO:LB:g=original	!	!LO:PB:g=original	!
=53||-	=53||-	=53||-	=53||-	=53||-	=53||-	=53||-	=53||-
*M2/1	*	*M2/1	*	*M2/1	*	*M2/1	*
*met(c|)	*	*met(c|)	*	*met(c|)	*	*met(c|)	*
2r	.	00r	.	00r	.	00r	.
1F	Ky-	.	.	.	.	.	.
!LO:TX:t=P:problem=kreska pseudotaktowa	!	!	!	!	!	!	!
2E\	-ri-	.	.	.	.	.	.
=54-	=54-	=54-	=54-	=54-	=54-	=54-	=54-
2.F\	-e	.	.	.	.	.	.
4F\	e-	.	.	.	.	.	.
(>4G\	-ley-	.	.	.	.	.	.
4A\)	.	.	.	.	.	.	.
(>4G\	.	.	.	.	.	.	.
4F\)	-son,	.	.	.	.	.	.
=55-	=55-	=55-	=55-	=55-	=55-	=55-	=55-
2E\,<	.	0r	.	00r	.	00r	.
2E\	e-	.	.	.	.	.	.
2.D\	-ley-	.	.	.	.	.	.
4D\	.	.	.	.	.	.	.
=56-	=56-	=56-	=56-	=56-	=56-	=56-	=56-
!LO:TX:t=P:problem=kreska pseudotaktowa	!	!	!	!	!	!	!
1C	-son	2r	.	.	.	.	.
.	.	1c	Ky-	.	.	.	.
2r	.	.	.	.	.	.	.
!	!	!LO:TX:t=P:problem=kreska pseudotaktowa	!	!	!	!	!
(>4F\	e-	2A/	-ri-	.	.	.	.
4E\)	.	.	.	.	.	.	.
=57-	=57-	=57-	=57-	=57-	=57-	=57-	=57-
2D\	-ley-	2.B-\	-e	00re	.	00rcc	.
4G\	.	.	.	.	.	.	.
4F\	-son	4B-\	e-	.	.	.	.
2E,<\	.	4c\	-lei-	.	.	.	.
.	.	(>4d\	.	.	.	.	.
2E\	e-	(>4c\)	.	.	.	.	.
!	!	!LO:TX:t=P:problem=kreska pseudotaktowa	!	!	!	!	!
.	.	4B-\)	-son	.	.	.	.
=58-	=58-	=58-	=58-	=58-	=58-	=58-	=58-
2F\	-ley-	2A/	.	.	.	.	.
1F	.	2A/	e-	.	.	.	.
.	.	2.G/	-lei-	.	.	.	.
2E\	-son.	.	.	.	.	.	.
.	.	4G/	.	.	.	.	.
=59-	=59-	=59-	=59-	=59-	=59-	=59-	=59-
!LO:TX:t=P:problem=kreska pseudotaktowa	!	!LO:TX:t=P:problem=kreska pseudotaktowa	!	!	!	!	!
1F	.	1A	-son	2r	.	00rcc	.
.	.	.	.	1f	Ky-	.	.
1r	.	2r	.	.	.	.	.
.	.	(>4c\	e-	2e\	-ri-	.	.
.	.	4B-\)	.	.	.	.	.
=60-	=60-	=60-	=60-	=60-	=60-	=60-	=60-
2r	.	2A\	-lei-	2.f\	-e	.	.
2D\	e-	(>4d\	.	.	.	.	.
.	.	4c\)	.	4f\	e-	.	.
2G\	-ley-	2Bn,<\	-son,	(>4g\	.	.	.
.	.	.	.	4a\)	.	.	.
!LO:TX:t=P:problem=kreska pseudotaktowa	!	!LO:TX:t=P:problem=kreska pseudotaktowa	!	!	!	!	!
2G\	.	2B\	e-	(>4g\	-lei-	.	.
!	!	!	!	!LO:TX:t=P:problem=kreska pseudotaktowa	!	!	!
.	.	.	.	4f\)	.	.	.
!LO:LB:g=original	!	!	!	!	!	!	!
=61-	=61-	=61-	=61-	=61-	=61-	=61-	=61-
4C/	-son	2c\	-lei-	2e,<\	-son	0ree	.
4D/	.	.	.	.	.	.	.
4E/	.	1c	.	2e\	e-	.	.
4F/	.	.	.	.	.	.	.
2G,<\	.	.	.	2.d\	-lei-	.	.
!	!	!LO:LB:g=original	!	!	!	!	!
2G\	e-	2Bn\	.	.	.	.	.
.	.	.	.	4d\	.	.	.
=62-	=62-	=62-	=62-	=62-	=62-	=62-	=62-
!	!	!LO:TX:t=P:problem=kreska pseudotaktowa	!	!LO:TX:t=P:problem=kreska pseudotaktowa	!	!	!
2E\	-ley-	1c	-son	1c	-son	2r	.
2C/	-son	.	.	.	.	1cc	Ky-
!LO:TX:t=P:problem=kreska pseudotaktowa	!	!	!	!	!	!	!
1F	.	0r	.	2r	.	.	.
.	.	.	.	4f\	e-	2a\	-ri-
.	.	.	.	4e\	.	.	.
=63-	=63-	=63-	=63-	=63-	=63-	=63-	=63-
2.G\	Ky-	.	.	2d\	-lei-	2.b-y\	-e
.	.	.	.	4g\	.	.	.
4G\	-ri-	.	.	4f\	.	4b-\	e-
2C/	-e	2.c\	Ky-	2e\	-son	4cc\	-lei-
.	.	.	.	.	.	4dd\	.
!	!	!	!	!LO:TX:t=P:problem=kreska pseudotaktowa	!	!	!
2C/	e-	.	.	2e\	e-	4cc\	.
!	!	!	!	!	!	!LO:TX:t=P:problem=kreska pseudotaktowa	!
.	.	4c\	-ri-	.	.	4b-\	.
=64-	=64-	=64-	=64-	=64-	=64-	=64-	=64-
2F\	-ley-	2c\	-e	2f\	-lei-	2a,<\	-son
2F\	.	2c\	e-	1f	.	2a\	e-
2.C/	.	2.c\	-lei-	.	.	2.gny/	-lei-
!	!	!	!	!LO:TX:t=P:problem=kreska pseudotaktowa	!	!	!
.	.	.	.	2e\	.	.	.
4C/	.	4c\	.	.	.	4g/	.
!	!	!	!	!LO:LB:g=original	!	!	!
=65-	=65-	=65-	=65-	=65-	=65-	=65-	=65-
!LO:TX:t=P:problem=kreska pseudotaktowa	!	!	!	!	!	!	!
!LO:TX:a:t=2	!	!LO:TX:t=P:problem=kreska pseudotaktowa	!	!	!	!LO:TX:t=P:problem=kreska pseudotaktowa	!
0F	-son	1c	-son	1f	-son	1f	-son.
!	!	!	!	!LO:TX:a:t=I.	!	!	!
.	.	0r	.	1r	.	2.cc\	Ky-
.	.	.	.	.	.	4cc\	-ri-
=66-	=66-	=66-	=66-	=66-	=66-	=66-	=66-
0r	.	.	.	2.f\	Ky-	2a\	-e
.	.	.	.	.	.	2a\	e-
.	.	.	.	4f\	-ri-	.	.
.	.	2.c\	Ky-	2e\	-e	4g/	-lei-
.	.	.	.	.	.	(>4f/	.
.	.	.	.	2e\	e-	4g/)	.
!	!	!	!	!	!	!LO:TX:t=P:problem=kreska pseudotaktowa	!
.	.	4c\	-ri-	.	.	(>4e/	-son
=67-	=67-	=67-	=67-	=67-	=67-	=67-	=67-
2.F\	Ky-	2A\	-e	2c/	-lei-	2f/)	.
.	.	2Bn\	e-	2d/	-son	2g/	e-
4F\	-ri-	.	.	.	.	.	.
!	!	!	!	!	!	!LO:LB:g=original	!
!	!	!	!	!LO:TX:t=P:problem=kreska pseudotaktowa	!	!	!
2E\	-e	4c\	-ley-	1e	.	2.g/	-lei-
.	.	4B\	.	.	.	.	.
4F\	e-	4A/	.	.	.	.	.
!	!	!LO:TX:t=P:problem=kreska pseudotaktowa	!	!	!	!	!
4E\	.	4G/	.	.	.	4g/	.
=68-	=68-	=68-	=68-	=68-	=68-	=68-	=68-
!	!	!	!	!	!	!LO:TX:t=P:problem=kreska pseudotaktowa	!
2D/	-ley-	1F,<	-son	2r	.	1a	-son.
2D/	-son.	.	.	2d\	e-	.	.
!LO:TX:t=P:problem=kreska pseudotaktowa	!	!	!	!	!	!	!
1C	.	2.c\	Ky-	2e\	-lei-	2r	.
!	!	!	!	!LO:TX:t=P:problem=kreska pseudotaktowa	!	!	!
.	.	.	.	2e\	.	2g\	e-
.	.	4c\	-ri-	.	.	.	.
=69-	=69-	=69-	=69-	=69-	=69-	=69-	=69-
2.F\	Ky-	2c\	-e	2f\	-son	2a\	-lei-
!	!	!LO:TX:t=P:problem=kreska pseudotaktowa	!	!	!	!	!
.	.	2c\	e-	2f\	e-	2a\	-son
4F\	-ri-	.	.	.	.	.	.
!	!	!LO:LB:g=original	!	!	!	!	!
2G\	-e	2Bn\	-ley-	2d\	-lei-	2g\	.
!LO:TX:t=P:problem=kreska pseudotaktowa	!	!	!	!	!	!	!
2C/	e-	2c\	.	2e\	.	2g\	e-
!LO:PB:g=original	!	!	!	!	!	!	!
=70-	=70-	=70-	=70-	=70-	=70-	=70-	=70-
2.G\	-ley-	2c\	.	2.d\	.	2.g\	-lei-
.	.	2Bn\	-son	.	.	.	.
4G\	-son	.	.	4d\	.	4g\	-son
!LO:TX:t=P:problem=kreska pseudotaktowa	!	!LO:TX:t=P:problem=kreska pseudotaktowa	!	!LO:TX:t=P:problem=kreska pseudotaktowa	!	!LO:TX:t=P:problem=kreska pseudotaktowa	!
1C	.	1c	.	1e	-son	1g	.
=71-	=71-	=71-	=71-	=71-	=71-	=71-	=71-
2.AA/	Ky-	2.c\	Ky-	2.e\	Ky-	2.a\	Ky-
4AA/	-ri-	4c\	-ri-	4e\	-ri-	4a\	-ri-
!	!	!	!	!LO:LB:g=original	!	!	!
2E\	-e	2Bn\	-e	2e\	-e	2g#X\	-e
!	!	!LO:TX:t=P:problem=kreska pseudotaktowa	!	!	!	!LO:TX:t=P:problem=kreska pseudotaktowa	!
2D\	e-	2B\	e-	2e\	e-	2g#\	e-
=72-	=72-	=72-	=72-	=72-	=72-	=72-	=72-
2C/	-ley-	2c\	-ley-	2e\	-lei-	2a\	-lei-
2AA/	-son	2c\	.	2e\	.	2a\	.
!LO:TX:t=P:problem=kreska pseudotaktowa	!	!LO:TX:t=P:problem=kreska pseudotaktowa	!	!LO:TX:t=P:problem=kreska pseudotaktowa	!	!LO:TX:t=P:problem=kreska pseudotaktowa	!
1E	.	1Bn	-son	1e	-son	1g#X	-son
=73-	=73-	=73-	=73-	=73-	=73-	=73-	=73-
*	*ij	*	*ij	*	*	*	*
2.C/	Ky-	2.c\	Ky-	2.e\	Ky-	2.a\	Ky-
4C/	-ri-	4c\	-ri-	4e\	-ri-	4a\	-ri-
2C/	-e	2c\	-e	2e\	-e	2a\	-e
!	!	!	!	!LO:TX:t=P:problem=kreska pseudotaktowa	!	!LO:TX:t=P:problem=kreska pseudotaktowa	!
2AA/	e-	2c\	e-	2e\	e-	2a\	e-
!	!	!	!	!	!	!LO:LB:g=original	!
=74-	=74-	=74-	=74-	=74-	=74-	=74-	=74-
2E\	-ley-	2Bn\	-ley-	1e	-lei-	2g#X\	-lei-
2AA/	-son	2c\	-son	.	.	1a	.
2.E\	Ky-	2.Bn\	e-	2e\	.	.	.
!	!	!	!	!	!	!LO:TX:t=P:problem=kreska pseudotaktowa	!
.	.	.	.	2e\	.	2g#X\	.
4E\	-ri-	4B\	-ley-	.	.	.	.
=75-	=75-	=75-	=75-	=75-	=75-	=75-	=75-
!LO:TX:t=P:problem=kreska pseudotaktowa	!	!LO:TX:t=P:problem=kreska pseudotaktowa	!	!LO:TX:t=P:problem=kreska pseudotaktowa	!	!	!
1AA	-e	1c	-son	1e	-son.	2a,<\	-son,
*	*Xij	*	*Xij	*	*	*	*
.	.	.	.	.	.	1cc	Ky-
!	!	!LO:LB:g=original	!	!	!	!	!
2r	.	00r	.	0r	.	.	.
!	!	!	!	!	!	!LO:TX:t=P:problem=kreska pseudotaktowa	!
2F\	e-	.	.	.	.	2a\	-ri-
=76-	=76-	=76-	=76-	=76-	=76-	=76-	=76-
2E\	-ley-	.	.	.	.	2.b-\	-e
2C\	-son	.	.	.	.	.	.
.	.	.	.	.	.	4b-\	e-
!LO:TX:t=P:problem=kreska pseudotaktowa	!	!	!	!	!	!	!
1F	.	.	.	2r	.	4a\	-lei-
.	.	.	.	.	.	4g\ny	.
.	.	.	.	2f\	Ky-	4a\	.
.	.	.	.	.	.	8b-\L	.
!	!	!	!	!	!	!LO:TX:t=P:problem=kreska pseudotaktowa	!
.	.	.	.	.	.	8a\J	.
=77-	=77-	=77-	=77-	=77-	=77-	=77-	=77-
!LO:TX:a:t=5.	!	!	!	!	!	!	!
00r	.	.	.	2f\	-ri-	2.g/	-son
.	.	.	.	2e\	-e	.	.
.	.	.	.	.	.	4g/	e-
.	.	1r	.	2.f\	e-	4a\	-lei-
.	.	.	.	.	.	4g\	.
.	.	.	.	.	.	4a\	.
!	!	!	!	!LO:TX:t=P:problem=kreska pseudotaktowa	!	!LO:TX:t=P:problem=kreska pseudotaktowa	!
.	.	.	.	4f\	.	4bn\	.
=78-	=78-	=78-	=78-	=78-	=78-	=78-	=78-
.	.	2r	.	4e\	-lei-	1cc	-son
.	.	.	.	4d\	.	.	.
.	.	1c	Ky-	1e	.	.	.
.	.	.	.	.	.	2r	.
!	!	!	!	!LO:LB:g=original	!	!	!
.	.	2A\	-ri-	4f\	.	1cc\	Ky-
!	!	!	!	!LO:TX:t=P:problem=kreska pseudotaktowa	!	!	!
.	.	.	.	4e\	.	.	.
=79-	=79-	=79-	=79-	=79-	=79-	=79-	=79-
1r	.	2.B-y\	-e	2d\	.	.	.
!	!	!	!	!	!	!LO:TX:t=P:problem=kreska pseudotaktowa	!
.	.	.	.	2g\	.	2b-y\	-ri-
.	.	4B-\	ley-	.	.	.	.
!	!	!	!	!LO:TX:t=P:problem=kreska pseudotaktowa	!	!	!
2r	.	4A/	.	1f	-son	2.cc\	-e
.	.	4G/	.	.	.	.	.
1F\	Ky-	4A/	.	.	.	.	.
.	.	8B-/L	.	.	.	4cc\	e-
!	!	!LO:TX:t=P:problem=kreska pseudotaktowa	!	!	!	!	!
.	.	8c/J	.	.	.	.	.
!	!	!	!	!	!	!LO:LB:g=original	!
=80-	=80-	=80-	=80-	=80-	=80-	=80-	=80-
.	.	2d\	-son	2.g\	Ky-	4b-\	-lei-
.	.	.	.	.	.	4a\	.
2E\	-ri-	1c	e-	.	.	4b-\	.
.	.	.	.	4g\	-ri-	8cc\L	.
.	.	.	.	.	.	8b-\J	.
2.F\	-e	.	.	2f\	-e	2a,<\	-son,
!	!	!LO:TX:t=P:problem=kreska pseudotaktowa	!	!	!	!LO:TX:t=P:problem=kreska pseudotaktowa	!
.	.	2d\	-ley-	2f\	e-	2a\	e-
!LO:TX:t=P:problem=kreska pseudotaktowa	!	!	!	!	!	!	!
4F\	e-	.	.	.	.	.	.
!LO:LB:g=original	!	!	!	!	!	!	!
=81-	=81-	=81-	=81-	=81-	=81-	=81-	=81-
4E\	-ley-	2d\	.	2g\	-ley-	2b-\	-lei-
4D\	.	.	.	.	.	.	.
4E\	.	2c\	.	2e\	.	2g/	-son
4F\	-son,	.	.	.	.	.	.
2G,<\	.	2.B-X\	.	2d/	-son	2g/	.
!	!	!	!	!	!	!LO:TX:t=P:problem=kreska pseudotaktowa	!
2C/	e	.	.	4e\	e-	2g/	e-
!	!	!	!	!LO:TX:t=P:problem=kreska pseudotaktowa	!	!	!
.	.	4B-\	-son	4d\	.	.	.
=82-	=82-	=82-	=82-	=82-	=82-	=82-	=82-
2F\	e-	2A/	.	1c	-ley-	2f/	-lei-
!	!	!LO:TX:t=P:problem=kreska pseudotaktowa	!	!	!	!	!
2F\	.	2A/	e-	.	.	1f	.
2.C/	-ley-	2.G/	-ley-	2c/	.	.	.
!	!	!	!	!	!	!LO:TX:t=P:problem=kreska pseudotaktowa	!
.	.	.	.	2c/	.	2e/	.
4C/	-son	4G/	-son	.	.	.	.
=83-	=83-	=83-	=83-	=83-	=83-	=83-	=83-
*	*ij	*	*	*	*	*	*
!LO:TX:t=P:problem=kreska pseudotaktowa	!	!	!	!LO:TX:t=P:problem=kreska pseudotaktowa	!	!	!
1F	e-	1A	.	1c	-son	1f	-son
1F	-ley-	1c	e-	1f	e-	1a	e-
=84-	=84-	=84-	=84-	=84-	=84-	=84-	=84-
1.C	.	1.c	-ley-	2f\	.	1g	-lei-
.	.	.	.	4e\	-ley-	.	.
.	.	.	.	4d\	.	.	.
.	.	.	.	2.e\	.	2g/	.
2C/	.	2c\	-son.	.	.	2g/	.
.	.	.	.	4e\	.	.	.
=85-	=85-	=85-	=85-	=85-	=85-	=85-	=85-
!LO:TX:t=P:problem=końcowa kreska pseudotaktowa	!	!LO:TX:t=P:problem=końcowa kreska pseudotaktowa	!	!LO:TX:t=P:problem=końcowa kreska pseudotaktowa	!	!LO:TX:t=P:problem=końcowa kreska pseudotaktowa	!
0F;>	-son	0c;>	.	0f;>	-son	0a;>	-son.
*	*Xij	*	*	*	*	*	*
==-	==-	==-	==-	==-	==-	==-	==-
*-	*-	*-	*-	*-	*-	*-	*-
!!!system-decoration: [(s1,s2,s3,s4)]
!!!RDF**kern: > = above
!!!RDF**kern: < = below
!!!EED: Antoni Szymański
!!!EEV: 2021-08-02
!!!ENC: Anastazja Marusiak
!!!END: 2021-07-06
